.local/share/icons/Gruvbox-Plus-Dark/mimetypes/scalable/virtualbox-hdd.svg

<svg width="256" height="256" viewBox="0 0 256 256" fill="none" xmlns="http://www.w3.org/2000/svg">
<g opacity="0.4" filter="url(#filter0_f)">
<path fill-rule="evenodd" clip-rule="evenodd" d="M99.4032 15.5636H55.0839H55.0838C46.1734 15.5636 39 22.737 39 31.6474V224.654C39 233.564 46.1734 240.737 55.0838 240.737H55.1727H199.838H199.927C208.838 240.737 216.011 233.564 216.011 224.654L216.011 224.609L216.011 31.6474C216.011 22.737 208.838 15.5636 199.927 15.5636H155.608H99.4032Z" fill="#282828"/>
</g>
<path fill-rule="evenodd" clip-rule="evenodd" d="M99.4032 15H55.0839H55.0838C46.1734 15 39 22.1734 39 31.0838V224.09C39 233 46.1734 240.174 55.0838 240.174H55.1727H199.838H199.927C208.838 240.174 216.011 233 216.011 224.09L216.011 224.046L216.011 31.0838C216.011 22.1734 208.838 15 199.927 15H155.608H99.4032Z" fill="#ebdbb2"/>
<path opacity="0.2" d="M199.838 240.174C208.749 240.174 216.011 232.956 216.011 224.046L216.01 186.5H39V224.09C39 233 46.1734 240.174 55.0838 240.174H199.838Z" fill="url(#paint0_linear)"/>
<path d="M105.713 223H110.473V195H105.713V206.32H93.4734V195H88.6734V223H93.4734V210.84H105.713V223ZM117.267 195V223H125.747C136.027 223 139.387 215.4 139.387 209C139.387 202.04 135.707 195 125.907 195H117.267ZM126.427 218.48H122.067V199.52H126.867C132.187 199.52 134.427 204.28 134.427 209C134.427 213.4 132.387 218.48 126.427 218.48ZM145.197 195V223H153.677C163.957 223 167.317 215.4 167.317 209C167.317 202.04 163.637 195 153.837 195H145.197ZM154.357 218.48H149.997V199.52H154.797C160.117 199.52 162.357 204.28 162.357 209C162.357 213.4 160.317 218.48 154.357 218.48Z" fill="url(#paint1_linear)"/>
<path d="M124.989 66L121.667 78.817L110.719 120.899L102.509 93.499L101.629 90.699H40V98.363L95.811 98.557L107.248 136.563L111.256 149.919L114.775 136.416L125.917 93.646L132.564 113.73L136.181 124.63L139.992 113.78L147.861 91.192L157.587 120.998L158.466 123.698H161.302L216.01 123.667V115.635L164.136 115.842L151.673 77.737L148.057 66.737L144.245 77.687L136.376 100.275L129.143 78.571L124.988 66.001L124.989 66Z" fill="url(#paint2_linear)"/>
<path fill-rule="evenodd" clip-rule="evenodd" d="M216.011 31.0838C216.011 22.1734 208.838 15 199.927 15H55.0839C46.1735 15 39 22.1734 39 31.0838V224.09C39 233 46.1734 240.174 55.0838 240.174H199.927C208.838 240.174 216.011 233 216.011 224.09V31.0838ZM211.011 224.09V31.0838C211.011 24.9348 206.076 20 199.927 20H55.0839C48.9349 20 44 24.9348 44 31.0838V224.09C44 230.239 48.9348 235.174 55.0838 235.174H199.927C206.076 235.174 211.01 230.24 211.011 224.092C211.011 224.092 211.011 224.092 211.011 224.092C211.011 224.091 211.011 224.09 211.011 224.09Z" fill="url(#paint3_linear)"/>
<defs>
<filter id="filter0_f" x="23.8778" y="0.441412" width="207.255" height="255.418" filterUnits="userSpaceOnUse" color-interpolation-filters="sRGB">
<feFlood flood-opacity="0" result="BackgroundImageFix"/>
<feBlend mode="normal" in="SourceGraphic" in2="BackgroundImageFix" result="shape"/>
<feGaussianBlur stdDeviation="7.5611" result="effect1_foregroundBlur"/>
</filter>
<linearGradient id="paint0_linear" x1="39" y1="186.5" x2="39" y2="240.174" gradientUnits="userSpaceOnUse">
<stop offset="1e-07" stop-color="#fabd2f"/>
<stop offset="0.5" stop-color="#fe8019"/>
<stop offset="1" stop-color="#d65d0e"/>
</linearGradient>
<linearGradient id="paint1_linear" x1="39" y1="184" x2="39" y2="237" gradientUnits="userSpaceOnUse">
<stop offset="1e-07" stop-color="#fabd2f"/>
<stop offset="0.5" stop-color="#fe8019"/>
<stop offset="1" stop-color="#d65d0e"/>
</linearGradient>
<linearGradient id="paint2_linear" x1="40" y1="66" x2="40" y2="149.919" gradientUnits="userSpaceOnUse">
<stop offset="1e-07" stop-color="#fabd2f"/>
<stop offset="0.5" stop-color="#fe8019"/>
<stop offset="1" stop-color="#d65d0e"/>
</linearGradient>
<linearGradient id="paint3_linear" x1="39" y1="15" x2="39" y2="240.174" gradientUnits="userSpaceOnUse">
<stop offset="1e-07" stop-color="#fabd2f"/>
<stop offset="0.5" stop-color="#fe8019"/>
<stop offset="1" stop-color="#d65d0e"/>
</linearGradient>
</defs>
</svg>

<svg width="256" height="256" fill="none" version="1.1" viewBox="0 0 256 256" xmlns="http://www.w3.org/2000/svg">
  <path d="m99.4 15h-44.32c-8.91 0-16.08 7.173-16.08 16.08v193c0 8.91 7.173 16.08 16.08 16.08h144.8c8.911 0 16.08-7.174 16.08-16.08v-0.044-193c0-8.91-7.173-16.08-16.08-16.08h-100.5z" clip-rule="evenodd" fill="#ebdbb2" fill-rule="evenodd"/>
  <path d="m199.8 240.2c8.911 0 16.17-7.218 16.17-16.13l-1e-3 -37.55h-177v37.59c0 8.91 7.173 16.08 16.08 16.08h144.8z" fill="url(#paint0_linear)" opacity=".2"/>
  <path d="m105.7 223h4.76v-28h-4.76v11.32h-12.24v-11.32h-4.8v28h4.8v-12.16h12.24v12.16zm11.55-28v28h8.48c10.28 0 13.64-7.6 13.64-14 0-6.96-3.68-14-13.48-14h-8.64zm9.16 23.48h-4.36v-18.96h4.8c5.32 0 7.56 4.76 7.56 9.48 0 4.4-2.04 9.48-8 9.48zm18.77-23.48v28h8.48c10.28 0 13.64-7.6 13.64-14 0-6.96-3.68-14-13.48-14h-8.64zm9.16 23.48h-4.36v-18.96h4.8c5.32 0 7.56 4.76 7.56 9.48 0 4.4-2.04 9.48-8 9.48z" fill="url(#paint1_linear)"/>
  <path d="m125 66-3.322 12.82-10.95 42.08-8.21-27.4-0.88-2.8h-61.63v7.664l55.81 0.194 11.44 38.01 4.008 13.36 3.519-13.5 11.14-42.77 6.647 20.08 3.617 10.9 3.811-10.85 7.869-22.59 9.726 29.81 0.879 2.7h2.836l54.71-0.031v-8.032l-51.87 0.207-12.46-38.1-3.616-11-3.812 10.95-7.869 22.59-7.233-21.7-4.155-12.57 1e-3 -1e-3z" fill="url(#paint2_linear)"/>
  <path d="m216 31.08c0-8.91-7.173-16.08-16.08-16.08h-144.8c-8.91 0-16.08 7.173-16.08 16.08v193c0 8.91 7.173 16.08 16.08 16.08h144.8c8.911 0 16.08-7.174 16.08-16.08v-193zm-5 193v-193c0-6.149-4.935-11.08-11.08-11.08h-144.8c-6.149 0-11.08 4.935-11.08 11.08v193c0 6.149 4.935 11.08 11.08 11.08h144.8c6.149 0 11.08-4.934 11.08-11.08v-2e-3z" clip-rule="evenodd" fill="url(#paint3_linear)" fill-rule="evenodd"/>
  <defs>
    <linearGradient id="paint0_linear" x1="39" x2="39" y1="186.5" y2="240.2" gradientUnits="userSpaceOnUse">
      <stop stop-color="#fabd2f" offset="1e-7"/>
      <stop stop-color="#fe8019" offset=".5"/>
      <stop stop-color="#d65d0e" offset="1"/>
    </linearGradient>
    <linearGradient id="paint1_linear" x1="39" x2="39" y1="184" y2="237" gradientUnits="userSpaceOnUse">
      <stop stop-color="#fabd2f" offset="1e-7"/>
      <stop stop-color="#fe8019" offset=".5"/>
      <stop stop-color="#d65d0e" offset="1"/>
    </linearGradient>
    <linearGradient id="paint2_linear" x1="40" x2="40" y1="66" y2="149.9" gradientUnits="userSpaceOnUse">
      <stop stop-color="#fabd2f" offset="1e-7"/>
      <stop stop-color="#fe8019" offset=".5"/>
      <stop stop-color="#d65d0e" offset="1"/>
    </linearGradient>
    <linearGradient id="paint3_linear" x1="39" x2="39" y1="15" y2="240.2" gradientUnits="userSpaceOnUse">
      <stop stop-color="#fabd2f" offset="1e-7"/>
      <stop stop-color="#fe8019" offset=".5"/>
      <stop stop-color="#d65d0e" offset="1"/>
    </linearGradient>
  </defs>
</svg>
